buildsupport/Graphics/pictures/svg/shorts.svg

<?xml version="1.0" encoding="UTF-8"?>
<svg xmlns="http://www.w3.org/2000/svg" xmlns:xlink="http://www.w3.org/1999/xlink" width="1024pt" height="879pt" viewBox="0 0 1024 879" version="1.1">
<g id="surface1">
<path style=" stroke:none;fill-rule:nonzero;fill:rgb(100%,0%,0%);fill-opacity:1;" d="M 416.605469 866.613281 C 449.546875 757.484375 482.488281 648.355469 515.429688 539.234375 C 545.28125 649.386719 575.136719 759.542969 604.988281 869.699219 C 671.824219 876.261719 738.890625 871.890625 805.667969 865.632812 C 871.988281 859.417969 934.121094 836.359375 991.734375 805.152344 C 1039.796875 778.621094 1011.285156 721.484375 1008.53125 679.71875 C 988.75 558.585938 974.171875 436.191406 946.441406 316.660156 C 931.089844 250.480469 903.054688 187.855469 874.851562 126.492188 C 858.3125 90.5 864.054688 30.804688 860.324219 4.921875 L 166.453125 4.921875 C 166.789062 56.238281 168.382812 108.085938 142.570312 155.605469 C 104.207031 226.230469 76.304688 303.40625 66.136719 384.507812 C 52.824219 490.726562 32.769531 596.402344 6.488281 700.296875 C -3.90625 751.527344 29.582031 799.191406 80.488281 820.363281 C 177.78125 860.824219 285.402344 881.542969 389.957031 870.824219 C 389.957031 870.824219 407.761719 868.261719 416.601562 866.605469 Z M 416.605469 866.613281 "/>
<path style="fill-rule:nonzero;fill:rgb(60.784314%,14.509804%,87.45098%);fill-opacity:1;stroke-width:2.6875;stroke-linecap:butt;stroke-linejoin:miter;stroke:rgb(100%,100%,100%);stroke-opacity:1;stroke-miterlimit:4;" d="M 288.170382 644.659736 C 293.296846 645.935991 298.298789 648.06827 302.355829 651.508848 C 306.551125 654.336933 310.429622 657.796737 314.463771 660.661443 C 315.88021 661.667615 317.386378 663.342127 316.316037 664.901282 C 315.715401 666.890738 313.569226 667.61401 312.187581 668.940619 C 311.027511 669.509166 309.71362 669.027595 308.479386 669.08802 L 295.010856 668.475527 C 292.731003 660.53693 290.450235 652.598333 288.170382 644.660652 Z M 288.170382 644.659736 " transform="matrix(4.266311,0,0,4.266635,-651.764353,-1982.433876)"/>
<path style="fill-rule:nonzero;fill:rgb(87.45098%,14.509804%,63.921569%);fill-opacity:1;stroke-width:2.6875;stroke-linecap:butt;stroke-linejoin:miter;stroke:rgb(100%,100%,100%);stroke-opacity:1;stroke-miterlimit:4;" d="M 262.580175 627.430298 C 262.823726 626.950559 262.29817 626.54223 261.888895 626.444268 C 258.382133 625.860157 255.345076 628.288154 252.568965 630.076192 C 249.106152 631.824863 246.575424 634.901973 243.207834 636.788889 C 236.593513 639.072231 230.29416 642.473441 223.526934 644.13422 C 215.820298 646.025713 213.53312 649.935045 212.162461 656.818946 C 211.592956 659.682737 212.162461 662.899924 212.162461 665.940413 L 212.416083 667.967406 L 226.604277 669.867139 L 250.419128 667.840147 L 262.960151 626.796749 L 262.706529 626.638361 " transform="matrix(4.266311,0,0,4.266635,-651.764353,-1982.433876)"/>
<path style="fill-rule:nonzero;fill:rgb(60.784314%,14.509804%,87.45098%);fill-opacity:1;stroke-width:2.6875;stroke-linecap:butt;stroke-linejoin:miter;stroke:rgb(100%,100%,100%);stroke-opacity:1;stroke-miterlimit:4;" d="M 201.279596 547.840164 C 210.751516 536.456412 222.08028 549.35812 221.804683 561.619869 C 221.575782 571.856457 228.54261 587.000308 215.039288 590.957247 C 202.321553 598.215602 221.175663 616.717633 207.229189 619.846929 C 196.343577 620.537242 198.926495 606.28329 193.684664 602.249446 C 184.906772 595.493719 194.333827 586.190976 198.332268 580.383743 C 202.498265 574.332977 172.645008 575.513101 179.618245 559.595623 C 183.897777 551.488568 196.812366 555.206552 201.280512 547.840164 Z M 201.279596 547.840164 " transform="matrix(4.266311,0,0,4.266635,-651.764353,-1982.433876)"/>
<path style="fill-rule:nonzero;fill:rgb(87.45098%,62.352941%,14.509804%);fill-opacity:1;stroke-width:2.6875;stroke-linecap:butt;stroke-linejoin:miter;stroke:rgb(100%,100%,100%);stroke-opacity:1;stroke-miterlimit:4;" d="M 339.179576 600.68022 C 329.762592 605.044572 310.121063 609.877677 311.745344 620.082221 C 313.343988 630.128378 326.615663 636.716562 334.96963 643.723145 C 341.648043 649.322552 353.443765 658.006394 360.620266 651.463987 C 372.574387 640.564552 380.332297 621.315446 375.636166 605.211199 C 371.428967 590.781465 350.262958 601.703788 354.985641 615.124603 C 358.342244 624.661723 348.023391 635.272764 340.716874 624.523477 C 336.599405 618.466303 358.987745 591.498328 339.179576 600.68022 Z M 339.179576 600.68022 " transform="matrix(4.266311,0,0,4.266635,-651.764353,-1982.433876)"/>
<path style="fill-rule:nonzero;fill:rgb(87.45098%,14.509804%,63.921569%);fill-opacity:1;stroke-width:2.6875;stroke-linecap:butt;stroke-linejoin:miter;stroke:rgb(100%,100%,100%);stroke-opacity:1;stroke-miterlimit:4;" d="M 293.43968 592.339704 C 303.324537 603.455204 317.572246 585.36608 321.991864 574.456574 C 327.886521 565.511805 326.321754 553.17132 335.591325 546.41834 C 344.7144 536.929743 323.032906 529.682375 317.501744 536.064563 C 310.687822 543.929002 320.080084 570.25061 306.607892 559.526958 C 293.136616 548.803306 278.234251 575.242103 293.43968 592.340619 Z M 293.43968 592.339704 " transform="matrix(4.266311,0,0,4.266635,-651.764353,-1982.433876)"/>
<path style="fill-rule:nonzero;fill:rgb(81.960784%,87.843137%,16.862745%);fill-opacity:1;stroke-width:2.6875;stroke-linecap:butt;stroke-linejoin:miter;stroke:rgb(100%,100%,100%);stroke-opacity:1;stroke-miterlimit:4;" d="M 365.330131 511.840444 C 354.159767 513.77039 355.718124 524.758632 358.115175 532.746668 C 360.668793 541.26022 341.46126 558.082245 354.68807 561.904601 C 363.201353 564.366472 371.271483 566.869543 379.988946 566.039153 L 377.7741 553.779235 L 375.175617 540.073688 L 371.055401 525.832553 Z M 365.330131 511.840444 " transform="matrix(4.266311,0,0,4.266635,-651.764353,-1982.433876)"/>
<path style="fill-rule:nonzero;fill:rgb(60.784314%,14.509804%,87.45098%);fill-opacity:1;stroke-width:2.6875;stroke-linecap:butt;stroke-linejoin:miter;stroke:rgb(100%,100%,100%);stroke-opacity:1;stroke-miterlimit:4;" d="M 277.040304 524.07015 C 274.854758 539.146252 294.620809 539.183788 297.854721 526.607095 C 302.307302 516.631435 307.049213 503.759939 318.92917 502.114724 C 331.509564 500.371547 334.61987 483.453391 320.438085 482.531448 C 307.452079 479.957881 292.35469 474.862934 280.256819 482.753007 C 270.093619 490.665054 277.19321 504.005303 277.33055 514.364572 C 277.374499 517.705356 277.561282 520.467523 277.039388 524.07015 Z M 277.040304 524.07015 " transform="matrix(4.266311,0,0,4.266635,-651.764353,-1982.433876)"/>
<path style="fill-rule:nonzero;fill:rgb(87.45098%,62.352941%,14.509804%);fill-opacity:1;stroke-width:2.6875;stroke-linecap:butt;stroke-linejoin:miter;stroke:rgb(100%,100%,100%);stroke-opacity:1;stroke-miterlimit:4;" d="M 179.839822 513.929693 C 192.209627 518.855267 206.255902 516.287194 218.444418 511.024703 C 229.431661 506.281321 236.061547 499.024797 242.725311 489.950937 C 249.021917 481.375128 248.768295 473.138983 237.040328 475.338096 C 226.326849 477.346778 221.747916 486.359297 212.83543 491.825036 C 203.994361 497.247745 205.4108 485.792581 202.882818 482.126782 C 200.828204 479.146718 195.715473 480.127255 192.144619 479.185171 L 192.265479 478.993824 L 191.459747 480.158383 L 190.384829 490.728226 L 188.145262 497.178164 L 186.085154 501.925209 L 183.218399 507.478839 L 179.838906 513.930609 Z M 179.839822 513.929693 " transform="matrix(4.266311,0,0,4.266635,-651.764353,-1982.433876)"/>
<path style="fill-rule:nonzero;fill:rgb(81.960784%,87.843137%,16.862745%);fill-opacity:1;stroke-width:2.6875;stroke-linecap:butt;stroke-linejoin:miter;stroke:rgb(100%,100%,100%);stroke-opacity:1;stroke-miterlimit:4;" d="M 158.92011 609.970146 C 169.567664 610.409602 190.317074 620.064826 179.428716 632.258826 C 173.809656 638.553123 173.115628 647.787201 169.707752 655.439236 L 166.6945 654.4175 L 160.603905 649.805039 L 156.30423 643.758851 L 153.93007 637.085522 L 154.109528 628.083074 Z M 158.92011 609.970146 " transform="matrix(4.266311,0,0,4.266635,-651.764353,-1982.433876)"/>
<path style="fill:none;stroke-width:2.6875;stroke-linecap:butt;stroke-linejoin:miter;stroke:rgb(0%,0%,0%);stroke-opacity:1;stroke-miterlimit:4;" d="M 250.420044 667.750424 C 258.141329 642.173146 265.862615 616.595867 273.5839 591.020419 C 280.580943 616.837568 287.578902 642.655632 294.575945 668.473696 C 310.241923 670.011794 325.961922 668.987311 341.614166 667.520625 C 357.159284 666.06401 371.722876 660.659612 385.227114 653.345409 C 396.492701 647.127101 389.80971 633.735582 389.16421 623.946691 C 384.527593 595.555975 381.11056 566.869543 374.61069 538.854196 C 371.012367 523.343216 364.44108 508.665372 357.830422 494.283245 C 353.953756 485.847513 355.299693 471.856319 354.425292 465.78999 L 191.785702 465.78999 C 191.864444 477.817362 192.23801 489.969248 186.187702 501.106721 C 177.195558 517.65958 170.655401 535.747789 168.272085 554.75611 C 165.151708 579.651315 160.450999 604.419262 154.290818 628.769725 C 151.854396 640.776956 159.703866 651.948304 171.636013 656.9105 C 194.440953 666.393603 219.666749 671.249596 244.173796 668.73737 C 244.173796 668.73737 248.347117 668.13678 250.419128 667.748593 Z M 250.420044 667.750424 " transform="matrix(4.266311,0,0,4.266635,-651.764353,-1982.433876)"/>
<path style="fill-rule:nonzero;fill:rgb(81.960784%,87.843137%,16.862745%);fill-opacity:1;stroke-width:2.6875;stroke-linecap:butt;stroke-linejoin:miter;stroke:rgb(100%,100%,100%);stroke-opacity:1;stroke-miterlimit:4;" d="M 260.260036 533.439727 C 262.407126 537.497374 259.642919 542.609717 260.137345 547.23225 C 260.625362 551.803512 262.752309 556.053422 263.222014 560.571583 C 263.849202 566.598544 261.41919 571.257698 256.609524 574.596651 C 253.53218 576.896473 250.241501 581.307517 246.610217 580.359939 C 241.162375 578.936283 246.002256 567.79057 245.953729 563.202828 C 245.448316 559.131448 245.751381 554.965767 245.250545 550.895302 C 244.831199 547.484021 243.852419 544.134997 243.503574 540.725548 C 243.173956 537.508361 243.633589 533.589875 246.562605 531.583024 C 250.917216 528.987484 257.853829 528.8941 260.260951 533.440642 Z M 260.260036 533.439727 " transform="matrix(4.266311,0,0,4.266635,-651.764353,-1982.433876)"/>
</g>
</svg>

<?xml version="1.0" encoding="UTF-8" standalone="no"?>
<!-- Created with Inkscape (http://www.inkscape.org/) -->
<svg
    xmlns:inkscape="http://www.inkscape.org/namespaces/inkscape"
    xmlns:rdf="http://www.w3.org/1999/02/22-rdf-syntax-ns#"
    xmlns="http://www.w3.org/2000/svg"
    xmlns:cc="http://creativecommons.org/ns#"
    xmlns:dc="http://purl.org/dc/elements/1.1/"
    xmlns:sodipodi="http://sodipodi.sourceforge.net/DTD/sodipodi-0.dtd"
    xmlns:svg="http://www.w3.org/2000/svg"
    xmlns:ns1="http://sozi.baierouge.fr"
    xmlns:xlink="http://www.w3.org/1999/xlink"
    id="svg2"
    sodipodi:docname="colorful beach shorts.svg"
    viewBox="0 0 240.02 205.87"
    version="1.1"
    inkscape:version="0.47 r22583"
  >
  <sodipodi:namedview
      id="base"
      bordercolor="#666666"
      inkscape:pageshadow="2"
      inkscape:window-y="-8"
      pagecolor="#ffffff"
      inkscape:window-height="838"
      inkscape:window-maximized="1"
      inkscape:zoom="1"
      inkscape:window-x="-8"
      showgrid="false"
      borderopacity="1.0"
      inkscape:current-layer="layer1"
      inkscape:cx="-21.244978"
      inkscape:cy="100.10108"
      inkscape:window-width="1600"
      inkscape:pageopacity="0.0"
      inkscape:document-units="px"
  />
  <g
      id="layer1"
      inkscape:label="Camada 1"
      inkscape:groupmode="layer"
      transform="translate(-152.77 -464.71)"
    >
    <g
        id="g3614"
      >
      <path
          id="path2830-1"
          sodipodi:nodetypes="cccsccssccsscscc"
          style="fill:#ff0000"
          d="m250.42 667.75c7.7213-25.577 15.443-51.154 23.164-76.73 6.9974 25.818 13.995 51.636 20.992 77.454 15.666 1.5375 31.386 0.51304 47.038-0.95346 15.545-1.4565 30.109-6.8611 43.613-14.175 11.266-6.2183 4.5824-19.61 3.9368-29.399-4.6361-28.391-8.0534-57.077-14.553-85.092-3.5986-15.511-10.17-30.189-16.78-44.571-3.8774-8.4364-2.531-22.427-3.4053-28.494h-162.64c0.0788 12.028 0.45224 24.18-5.5981 35.317-8.992 16.553-15.532 34.641-17.915 53.65-3.1205 24.895-7.821 49.663-13.982 74.013-2.4357 12.007 5.4133 23.179 17.346 28.141 22.805 9.4831 48.03 14.339 72.537 11.827 0 0 4.1738-0.60036 6.2458-0.98877z"
      />
      <path
          id="path3788"
          sodipodi:nodetypes="ccsccccc"
          style="stroke:#ffffff;stroke-width:2.6875;fill:#9b25df"
          d="m288.17 644.66c5.1267 1.276 10.129 3.4082 14.186 6.8487 4.1952 2.8286 8.0734 6.288 12.108 9.153 1.4159 1.0055 2.9222 2.6803 1.8518 4.2394-0.60023 1.9892-2.7468 2.7132-4.1281 4.0393-1.1605 0.56833-2.4738 0.087-3.7079 0.14718l-13.469-0.61224c-2.2802-7.9384-4.5604-15.877-6.8406-23.815z"
      />
      <path
          id="path3774"
          sodipodi:nodetypes="ccccsscccccc"
          style="stroke:#ffffff;stroke-width:2.6875;fill:#df25a3"
          d="m262.58 627.43c0.24394-0.47923-0.2822-0.88782-0.69113-0.98542-3.5071-0.58399-6.5439 1.8435-9.3197 3.6314-3.4626 1.7485-5.9938 4.8257-9.3616 6.7129-6.6139 2.2831-12.913 5.6844-19.681 7.3455-7.7061 1.8914-9.9934 5.8005-11.364 12.685-0.56997 2.8638 0 6.0805 0 9.1208l0.25336 2.0268 14.188 1.9002 23.815-2.0268 12.541-41.044-0.25336-0.15835"
      />
      <path
          id="path3635"
          sodipodi:nodetypes="csccsscc"
          style="stroke:#ffffff;stroke-width:2.6875;fill:#9b25df"
          d="m201.28 547.84c9.4712-11.384 20.8 1.5183 20.525 13.78-0.22947 10.236 6.7376 25.38-6.7654 29.337-12.718 7.2587 6.1357 25.761-7.81 28.89-10.886 0.6904-8.3032-13.564-13.545-17.598-8.7781-6.7553 0.64956-16.058 4.6475-21.865 4.1661-6.0514-25.687-4.8708-18.714-20.788 4.28-8.1072 17.194-4.3894 21.662-11.756z"
      />
      <path
          id="path3650"
          sodipodi:nodetypes="csssssss"
          style="stroke:#ffffff;stroke-width:2.6875;fill:#df9f25"
          d="m339.18 600.68c-9.417 4.365-29.059 9.1981-27.435 19.402 1.5989 10.046 14.871 16.635 23.225 23.641 6.6781 5.5998 18.474 14.283 25.65 7.7408 11.954-10.899 19.712-30.148 15.016-46.253-4.2067-14.429-25.373-3.5073-20.65 9.9139 3.3565 9.5372-6.9623 20.148-14.269 9.3985-4.1176-6.0572 18.271-33.025-1.5371-23.843z"
      />
      <path
          id="path3674"
          sodipodi:nodetypes="cccszs"
          style="stroke:#ffffff;stroke-width:2.6875;fill:#df25a3"
          d="m293.44 592.34c9.8847 11.115 24.132-6.9741 28.552-17.883 5.8946-8.9454 4.33-21.286 13.599-28.039 9.1232-9.4886-12.558-16.736-18.089-10.353-6.8139 7.864 2.5778 34.186-10.894 23.462s-28.374 15.715-13.168 32.814z"
      />
      <path
          id="path3692"
          sodipodi:nodetypes="cssccccc"
          style="stroke:#ffffff;stroke-width:2.6875;fill:#d1e02b"
          d="m365.33 511.84c-11.17 1.9304-9.6116 12.919-7.2149 20.907 2.554 8.5129-16.654 25.335-3.4274 29.158 8.5138 2.4611 16.584 4.9646 25.301 4.1341l-2.215-12.26-2.5977-13.705-4.1204-14.242-5.7254-13.992z"
      />
      <path
          id="path3696"
          sodipodi:nodetypes="ccsccss"
          style="stroke:#ffffff;stroke-width:2.6875;fill:#9b25df"
          d="m277.04 524.07c-2.1852 15.076 17.581 15.114 20.815 2.5367 4.4521-9.9753 9.1938-22.847 21.074-24.492 12.581-1.7429 15.691-18.661 1.5088-19.583-12.986-2.5735-28.083-7.6689-40.181 0.22123-10.163 7.9117-3.0638 21.252-2.9265 31.612 0.0443 3.3404 0.23136 6.103-0.29073 9.705z"
      />
      <path
          id="path3704"
          sodipodi:nodetypes="csssssccccccccc"
          style="stroke:#ffffff;stroke-width:2.6875;fill:#df9f25"
          d="m179.84 513.93c12.37 4.9256 26.416 2.3573 38.604-2.9049 10.988-4.7439 17.618-12 24.281-21.074 6.297-8.576 6.0434-16.812-5.6845-14.613-10.714 2.009-15.293 11.021-24.205 16.487-8.8412 5.4222-7.4245-6.0324-9.9525-9.6981-2.0552-2.9802-7.1676-2.0001-10.738-2.942l0.12082-0.19086-0.80617 1.1645-1.0749 10.57-2.2394 6.4494-2.0602 4.7474-2.8664 5.5536-3.3796 6.4514h0.00001z"
      />
      <path
          id="path3715"
          sodipodi:nodetypes="csccccccc"
          style="stroke:#ffffff;stroke-width:2.6875;fill:#d1e02b"
          d="m158.92 609.97c10.648 0.43943 31.397 10.095 20.509 22.289-5.6196 6.2938-6.3137 15.528-9.7212 23.18l-3.0129-1.0212-6.0911-4.6131-4.2996-6.0463-2.3737-6.6733 0.17915-9.0022 4.8101-18.113z"
      />
      <path
          id="path2830"
          sodipodi:nodetypes="cccsccssccsscscc"
          style="stroke:#000000;stroke-width:2.6875;fill:none"
          d="m250.42 667.75c7.7213-25.577 15.443-51.154 23.164-76.73 6.9974 25.818 13.995 51.636 20.992 77.454 15.666 1.5375 31.386 0.51304 47.038-0.95346 15.545-1.4565 30.109-6.8611 43.613-14.175 11.266-6.2183 4.5824-19.61 3.9368-29.399-4.6361-28.391-8.0534-57.077-14.553-85.092-3.5986-15.511-10.17-30.189-16.78-44.571-3.8774-8.4364-2.531-22.427-3.4053-28.494h-162.64c0.0788 12.028 0.45224 24.18-5.5981 35.317-8.992 16.553-15.532 34.641-17.915 53.65-3.1205 24.895-7.821 49.663-13.982 74.013-2.4357 12.007 5.4133 23.179 17.346 28.141 22.805 9.4831 48.03 14.339 72.537 11.827 0 0 4.1738-0.60036 6.2458-0.98877z"
      />
      <path
          id="path3806"
          sodipodi:nodetypes="csscscsscs"
          style="stroke:#ffffff;stroke-width:2.6875;fill:#d1e02b"
          d="m260.26 533.44c2.1472 4.057-0.6172 9.17-0.12307 13.792 0.48879 4.5715 2.6152 8.8217 3.0852 13.34 0.62678 6.0263-1.8033 10.686-6.6129 14.025-3.0766 2.2991-6.3679 6.7109-9.9988 5.7625-5.4483-1.423-0.60802-12.569-0.65656-17.157-0.50556-4.0707-0.20246-8.2368-0.70302-12.307-0.41956-3.4116-1.3984-6.7601-1.7474-10.17-0.3292-3.217 0.13043-7.136 3.0591-9.1425 4.355-2.5955 11.291-2.689 13.698 1.8572z"
      />
    </g
    >
  </g
  >
  <metadata
    >
    <rdf:RDF
      >
      <cc:Work
        >
        <dc:format
          >image/svg+xml</dc:format
        >
        <dc:type
            rdf:resource="http://purl.org/dc/dcmitype/StillImage"
        />
        <cc:license
            rdf:resource="http://creativecommons.org/licenses/publicdomain/"
        />
        <dc:publisher
          >
          <cc:Agent
              rdf:about="http://openclipart.org/"
            >
            <dc:title
              >Openclipart</dc:title
            >
          </cc:Agent
          >
        </dc:publisher
        >
        <dc:title
          >Colorful beach shorts</dc:title
        >
        <dc:date
          >2010-06-08T06:54:53</dc:date
        >
        <dc:description
          >Colorful beach shorts.</dc:description
        >
        <dc:source
          >https://openclipart.org/detail/64975/colorful-beach-shorts-by-laobc</dc:source
        >
        <dc:creator
          >
          <cc:Agent
            >
            <dc:title
              >laobc</dc:title
            >
          </cc:Agent
          >
        </dc:creator
        >
        <dc:subject
          >
          <rdf:Bag
            >
            <rdf:li
              >beach</rdf:li
            >
            <rdf:li
              >clothing</rdf:li
            >
            <rdf:li
              >summer</rdf:li
            >
            <rdf:li
              >summer2010</rdf:li
            >
          </rdf:Bag
          >
        </dc:subject
        >
      </cc:Work
      >
      <cc:License
          rdf:about="http://creativecommons.org/licenses/publicdomain/"
        >
        <cc:permits
            rdf:resource="http://creativecommons.org/ns#Reproduction"
        />
        <cc:permits
            rdf:resource="http://creativecommons.org/ns#Distribution"
        />
        <cc:permits
            rdf:resource="http://creativecommons.org/ns#DerivativeWorks"
        />
      </cc:License
      >
    </rdf:RDF
    >
  </metadata
  >
</svg
>
